lib/icons/screener.svg

<svg width="16" height="16" viewBox="0 0 16 16" fill="none" xmlns="http://www.w3.org/2000/svg">
<path fill-rule="evenodd" clip-rule="evenodd" d="M5.85775 1H1.00061L1.00061 5.85714L5.85775 5.85714L5.85775 1ZM1.00061 0C0.448326 0 0.000610352 0.447715 0.000610352 0.999999V5.85714C0.000610352 6.40943 0.448325 6.85714 1.00061 6.85714H5.85775C6.41004 6.85714 6.85775 6.40943 6.85775 5.85714V1C6.85775 0.447715 6.41004 0 5.85775 0H1.00061ZM15.0006 1H10.1435L10.1435 5.85714L15.0006 5.85714L15.0006 1ZM10.1435 0C9.59118 0 9.14347 0.447715 9.14347 0.999999V5.85714C9.14347 6.40943 9.59118 6.85714 10.1435 6.85714H15.0006C15.5529 6.85714 16.0006 6.40943 16.0006 5.85714V1C16.0006 0.447715 15.5529 0 15.0006 0H10.1435ZM0 12.5C0 12.2239 0.223858 12 0.5 12H15.5C15.7761 12 16 12.2239 16 12.5C16 12.7761 15.7761 13 15.5 13H0.5C0.223858 13 0 12.7761 0 12.5ZM0.5 9C0.223858 9 0 9.22386 0 9.5C0 9.77614 0.223858 10 0.5 10H15.5C15.7761 10 16 9.77614 16 9.5C16 9.22386 15.7761 9 15.5 9H0.5ZM0 15.5C0 15.2239 0.223858 15 0.5 15H15.5C15.7761 15 16 15.2239 16 15.5C16 15.7761 15.7761 16 15.5 16H0.5C0.223858 16 0 15.7761 0 15.5Z" fill="#5275FF"/>
</svg>

<svg width="16" height="16" fill="none" xmlns="http://www.w3.org/2000/svg"><path fill-rule="evenodd" clip-rule="evenodd" d="M5.858 1H1v4.857h4.857V1ZM1 0a1 1 0 0 0-1 1v4.857a1 1 0 0 0 1 1h4.857a1 1 0 0 0 1-1V1a1 1 0 0 0-1-1H1Zm14 1h-4.857v4.857H15V1Zm-4.857-1a1 1 0 0 0-1 1v4.857a1 1 0 0 0 1 1H15a1 1 0 0 0 1-1V1a1 1 0 0 0-1-1h-4.857ZM0 12.5a.5.5 0 0 1 .5-.5h15a.5.5 0 0 1 0 1H.5a.5.5 0 0 1-.5-.5ZM.5 9a.5.5 0 0 0 0 1h15a.5.5 0 0 0 0-1H.5ZM0 15.5a.5.5 0 0 1 .5-.5h15a.5.5 0 0 1 0 1H.5a.5.5 0 0 1-.5-.5Z" fill="#5275FF"/></svg>
